X:150
T:Miss Rumley’s Fancy. JGi.150
M:2/4
L:1/8
Q:1/4=100
S:Joshua Gibbons MS,1823,Tealby,Lincs.
R:Country Dance
O:Tealby,Lincolnshire
Z:VMP/R.Greig, 2009
K:F
FA/B/ cA|fA/B/ cA|dg/a/ bg|{f}e2dc|FA/B/ cA|fA/B/ cA|B>GF>E|F2F2:|
|:af/g/ af|bagf|{f}ed/c/ de|f/e/f/g/ ff|af/g/ af|bagf|{f}ed/c/ ce|f2f2:|
|:f2af|fed2|c>dc>B|BAA2|ff/g/ af|dd/e/ fd|cBAG|F2F2|]

